src/icons/icons_set_01/071-raquettes.svg

<svg xmlns="http://www.w3.org/2000/svg" viewBox="0 0 512.001 512.001" style="enable-background:new 0 0 512.001 512.001" xml:space="preserve"><path d="M496.826 105.108c-42.057 0-112.947-67.963-177.426-87.364C257.294-3.068 190.454.184 120.099.184 53.822.184.186 53.814.186 120.097c0 66.278 53.63 119.913 119.913 119.913 74.223 0 135.946 3.182 199.484-17.626 72.117-24.227 135.504-87.298 177.243-87.298 8.278 0 14.989-6.711 14.989-14.989 0-8.277-6.711-14.989-14.989-14.989zM60.142 187.121c-19.361-17.36-29.978-41.439-29.978-67.023 0-25.559 10.598-49.647 29.978-67.023v134.046zm59.957 22.911c-10.373 0-20.476-1.753-29.978-5.102v-39.865h29.978v44.967zm0-74.945H90.12v-29.978h29.978v29.978zm0-59.957H90.12V35.265c9.502-3.351 19.605-5.102 29.978-5.102V75.13zm59.956 135.052c-9.894.062-19.891.023-29.978-.03v-45.087h29.978v45.117zm0-75.095h-29.978v-29.978h29.978v29.978zm0-59.957h-29.978V30.042c10.088-.054 20.086-.093 29.978-.031V75.13zm59.957 132.591c-9.854.895-19.851 1.486-29.978 1.863v-44.52h29.978v42.657zm0-72.634h-29.978v-29.978h29.978v29.978zm0-59.957h-29.978V30.608c10.128.377 20.124.967 29.978 1.863V75.13zm59.956 121.951c-9.796 2.81-19.796 5.029-29.978 6.778v-38.794h29.978v32.016zm0-61.994H269.99v-29.978h29.978v29.978zm0-59.957H269.99V36.335c10.183 1.749 20.182 3.968 29.978 6.778V75.13zm60.956 95.21c-10.206 5.833-20.537 11.26-30.978 15.885V53.968c10.44 4.627 20.772 10.053 30.978 15.886V170.34zm29.979-18.134V87.988c18.859 11.807 36.862 23.363 54.278 32.11-17.432 8.754-35.474 20.336-54.278 32.108zM390.904 271.987h-76.069c-111.199 2.072-149.596 23.18-217.854 66.756-30.746 19.629-59.787 38.168-81.805 38.168-8.278 0-14.989 6.711-14.989 14.989s6.711 14.989 14.989 14.989c22.018 0 51.06 18.54 81.805 38.168 76.272 48.691 112.207 66.942 244.018 66.942 16.585 0 33.3-.187 49.904-.187 66.48 0 120.912-52.705 120.912-119.913.001-67.098-54.355-119.912-120.911-119.912zM120.1 424.242a4377.741 4377.741 0 0 1-6.987-4.454c-15.99-10.209-31.57-20.15-46.745-27.889 15.176-7.739 30.755-17.68 46.745-27.889 2.32-1.481 4.651-2.968 6.987-4.454v64.686zm59.956 33.785c-10.15-4.507-20.137-9.774-29.978-15.437V341.21c9.841-5.663 19.829-10.93 29.978-15.437v132.254zm59.957 17.613c-10.193-1.747-20.192-3.963-29.978-6.765v-32.008h29.978v38.773zm0-68.75h-29.978v-29.978h29.978v29.978zm0-59.957h-29.978v-32.008c9.786-2.802 19.786-5.017 29.978-6.765v38.773zm59.956 134.438c-10.133-.381-20.129-.976-29.978-1.872v-42.632h29.978v44.504zm0-74.481h-29.978v-29.978h29.978v29.978zm0-59.957h-29.978v-42.632c9.849-.895 19.846-1.49 29.978-1.872v44.504zm60.956 135.022c-10.426.056-20.759.097-30.978.029v-45.116h30.978v45.087zm0-75.065h-30.978v-29.978h30.978v29.978zm0-59.957h-30.978v-45.116c10.219-.068 20.55-.027 30.978.029v45.087zm60.956 129.588a93.182 93.182 0 0 1-30.978 5.313v-44.967h30.978v39.654zm0-69.631h-30.978v-29.978h30.978v29.978zm0-59.957h-30.978v-44.967a93.237 93.237 0 0 1 30.978 5.313v39.654zm29.978 111.974V324.892c18.775 16.71 29.978 40.751 29.978 67.007.001 26.235-11.185 50.283-29.978 67.008z"/></svg>

<?xml version="1.0" encoding="iso-8859-1"?>
<!-- Generator: Adobe Illustrator 19.0.0, SVG Export Plug-In . SVG Version: 6.00 Build 0)  -->
<svg version="1.1" id="Capa_1" xmlns="http://www.w3.org/2000/svg" xmlns:xlink="http://www.w3.org/1999/xlink" x="0px" y="0px"
	 viewBox="0 0 512.001 512.001" style="enable-background:new 0 0 512.001 512.001;" xml:space="preserve">
<g>
	<g>
		<path d="M496.826,105.108c-42.057,0-112.947-67.963-177.426-87.364C257.294-3.068,190.454,0.184,120.099,0.184
			c-66.277,0-119.913,53.63-119.913,119.913c0,66.278,53.63,119.913,119.913,119.913c74.223,0,135.946,3.182,199.484-17.626
			c72.117-24.227,135.504-87.298,177.243-87.298c8.278,0,14.989-6.711,14.989-14.989
			C511.815,111.82,505.104,105.108,496.826,105.108z M60.142,187.121c-19.361-17.36-29.978-41.439-29.978-67.023
			c0-25.559,10.598-49.647,29.978-67.023V187.121z M120.099,210.032c-10.373,0-20.476-1.753-29.978-5.102v-39.865h29.978V210.032z
			 M120.099,135.087H90.12v-29.978h29.978V135.087z M120.099,75.13H90.12V35.265c9.502-3.351,19.605-5.102,29.978-5.102V75.13z
			 M180.055,210.182c-9.894,0.062-19.891,0.023-29.978-0.03v-45.087h29.978V210.182z M180.055,135.087h-29.978v-29.978h29.978
			V135.087z M180.055,75.13h-29.978V30.042c10.088-0.054,20.086-0.093,29.978-0.031V75.13z M240.012,207.721
			c-9.854,0.895-19.851,1.486-29.978,1.863v-44.52h29.978V207.721z M240.012,135.087h-29.978v-29.978h29.978V135.087z
			 M240.012,75.13h-29.978V30.608c10.128,0.377,20.124,0.967,29.978,1.863V75.13z M299.968,197.081
			c-9.796,2.81-19.796,5.029-29.978,6.778v-38.794h29.978V197.081z M299.968,135.087H269.99v-29.978h29.978V135.087z M299.968,75.13
			H269.99V36.335c10.183,1.749,20.182,3.968,29.978,6.778V75.13z M360.924,170.34c-10.206,5.833-20.537,11.26-30.978,15.885V53.968
			c10.44,4.627,20.772,10.053,30.978,15.886V170.34z M390.903,152.206V87.988c18.859,11.807,36.862,23.363,54.278,32.11
			C427.749,128.852,409.707,140.434,390.903,152.206z"/>
	</g>
</g>
<g>
	<g>
		<path d="M390.904,271.987h-76.069c-111.199,2.072-149.596,23.18-217.854,66.756c-30.746,19.629-59.787,38.168-81.805,38.168
			c-8.278,0-14.989,6.711-14.989,14.989s6.711,14.989,14.989,14.989c22.018,0,51.06,18.54,81.805,38.168
			c76.272,48.691,112.207,66.942,244.018,66.942c16.585,0,33.3-0.187,49.904-0.187c66.48,0,120.912-52.705,120.912-119.913
			C511.816,324.801,457.46,271.987,390.904,271.987z M120.1,424.242c-2.336-1.486-4.667-2.972-6.987-4.454
			c-15.99-10.209-31.57-20.15-46.745-27.889c15.176-7.739,30.755-17.68,46.745-27.889c2.32-1.481,4.651-2.968,6.987-4.454V424.242z
			 M180.056,458.027c-10.15-4.507-20.137-9.774-29.978-15.437V341.21c9.841-5.663,19.829-10.93,29.978-15.437V458.027z
			 M240.013,475.64c-10.193-1.747-20.192-3.963-29.978-6.765v-32.008h29.978V475.64z M240.013,406.89h-29.978v-29.978h29.978V406.89
			z M240.013,346.933h-29.978v-32.008c9.786-2.802,19.786-5.017,29.978-6.765V346.933z M299.969,481.371
			c-10.133-0.381-20.129-0.976-29.978-1.872v-42.632h29.978V481.371z M299.969,406.89h-29.978v-29.978h29.978V406.89z
			 M299.969,346.933h-29.978v-42.632c9.849-0.895,19.846-1.49,29.978-1.872V346.933z M360.925,481.955
			c-10.426,0.056-20.759,0.097-30.978,0.029v-45.116h30.978V481.955z M360.925,406.89h-30.978v-29.978h30.978V406.89z
			 M360.925,346.933h-30.978v-45.116c10.219-0.068,20.55-0.027,30.978,0.029V346.933z M421.881,476.521
			c-9.842,3.474-20.336,5.313-30.978,5.313v-44.967h30.978V476.521z M421.881,406.89h-30.978v-29.978h30.978V406.89z
			 M421.881,346.933h-30.978v-44.967c10.641,0,21.136,1.841,30.978,5.313V346.933z M451.859,458.907V324.892
			c18.775,16.71,29.978,40.751,29.978,67.007C481.838,418.134,470.652,442.182,451.859,458.907z"/>
	</g>
</g>
<g>
</g>
<g>
</g>
<g>
</g>
<g>
</g>
<g>
</g>
<g>
</g>
<g>
</g>
<g>
</g>
<g>
</g>
<g>
</g>
<g>
</g>
<g>
</g>
<g>
</g>
<g>
</g>
<g>
</g>
</svg>
